SF_Symbols/arrow.uturn.backward.svg

<?xml version="1.0" encoding="UTF-8"?>
<svg xmlns="http://www.w3.org/2000/svg" xmlns:xlink="http://www.w3.org/1999/xlink" width="24" height="24" viewBox="0 0 24 24" version="1.1">
<g id="surface1">
<path style=" stroke:none;fill-rule:nonzero;fill:rgb(100%,100%,100%);fill-opacity:1;" d="M 23.074219 15.679688 C 23.074219 14.1875 22.746094 12.875 22.089844 11.742188 C 21.441406 10.601562 20.492188 9.710938 19.242188 9.070312 C 17.992188 8.429688 16.476562 8.109375 14.695312 8.109375 L 6.820312 8.109375 L 3.1875 8.273438 L 3.398438 8.8125 L 6.292969 6.339844 L 9.679688 3.035156 C 9.765625 2.941406 9.832031 2.835938 9.878906 2.71875 C 9.933594 2.601562 9.960938 2.46875 9.960938 2.320312 C 9.960938 2.015625 9.863281 1.769531 9.667969 1.582031 C 9.480469 1.386719 9.230469 1.289062 8.917969 1.289062 C 8.628906 1.289062 8.378906 1.398438 8.167969 1.617188 L 1.277344 8.378906 C 1.160156 8.488281 1.070312 8.609375 1.007812 8.742188 C 0.953125 8.875 0.925781 9.015625 0.925781 9.164062 C 0.925781 9.304688 0.953125 9.441406 1.007812 9.574219 C 1.070312 9.707031 1.160156 9.828125 1.277344 9.9375 L 8.167969 16.699219 C 8.378906 16.917969 8.628906 17.027344 8.917969 17.027344 C 9.230469 17.027344 9.480469 16.933594 9.667969 16.746094 C 9.863281 16.550781 9.960938 16.300781 9.960938 15.996094 C 9.960938 15.847656 9.933594 15.714844 9.878906 15.597656 C 9.832031 15.480469 9.765625 15.375 9.679688 15.28125 L 6.292969 11.988281 L 3.398438 9.503906 L 3.1875 10.042969 L 6.820312 10.207031 L 14.871094 10.207031 C 16.207031 10.207031 17.328125 10.433594 18.234375 10.886719 C 19.140625 11.339844 19.824219 11.972656 20.285156 12.785156 C 20.746094 13.589844 20.976562 14.515625 20.976562 15.5625 C 20.976562 16.617188 20.746094 17.558594 20.285156 18.386719 C 19.824219 19.214844 19.140625 19.867188 18.234375 20.34375 C 17.328125 20.828125 16.207031 21.070312 14.871094 21.070312 L 12.175781 21.070312 C 11.855469 21.070312 11.597656 21.171875 11.402344 21.375 C 11.207031 21.578125 11.109375 21.824219 11.109375 22.113281 C 11.109375 22.402344 11.207031 22.648438 11.402344 22.851562 C 11.597656 23.054688 11.855469 23.15625 12.175781 23.15625 L 14.882812 23.15625 C 16.632812 23.15625 18.117188 22.84375 19.335938 22.21875 C 20.554688 21.601562 21.480469 20.730469 22.113281 19.605469 C 22.753906 18.488281 23.074219 17.179688 23.074219 15.679688 Z M 23.074219 15.679688 "/>
</g>
</svg>

<svg xmlns="http://www.w3.org/2000/svg" width="24" height="24"><path style="stroke:none;fill-rule:nonzero;fill:#fff;fill-opacity:1" d="M23.074 15.68c0-1.492-.328-2.805-.984-3.938-.649-1.14-1.598-2.031-2.848-2.672-1.25-.64-2.765-.96-4.547-.96H6.82l-3.633.163.211.54L6.293 6.34 9.68 3.035c.086-.094.152-.2.199-.316a.934.934 0 0 0 .082-.399c0-.304-.098-.55-.293-.738-.188-.195-.438-.293-.75-.293-.29 0-.54.11-.75.328L1.278 8.38c-.118.11-.208.23-.27.363-.11.266-.11.567 0 .832.062.133.152.254.27.364l6.89 6.761c.21.219.46.328.75.328.312 0 .562-.093.75-.28.195-.196.293-.446.293-.75a.88.88 0 0 0-.082-.4 1.032 1.032 0 0 0-.2-.316l-3.386-3.293-2.895-2.484-.21.539 3.632.164h8.051c1.336 0 2.457.227 3.363.68.907.453 1.59 1.086 2.051 1.898.461.805.692 1.73.692 2.777 0 1.055-.23 1.997-.692 2.825-.46.828-1.144 1.48-2.05 1.957-.907.484-2.028.726-3.364.726h-2.695c-.32 0-.578.102-.774.305-.195.203-.293.45-.293.738 0 .29.098.535.293.739.196.203.453.304.774.304h2.707c1.75 0 3.234-.312 4.453-.937 1.219-.617 2.144-1.489 2.777-2.614.64-1.117.961-2.425.961-3.925Zm0 0"/></svg>
